TV/Source/Sky One HD.svg

<svg height="666.66797" viewBox="0 0 3184.7963 666.66596" width="3184.7456" xmlns="http://www.w3.org/2000/svg"><path d="m43.89037-.00240095c-24.443987 0-43.88937 20.55733595-43.88937 43.89132295v578.329508c0 24.44399 20.00008 44.44602 44.444066 44.44602l3095.861734.008c24.4442 0 44.446-19.99941 44.446-44.44407v-578.339458c0-23.33356-19.447-43.8893698-43.8914-43.8893698z" fill="#fff" stroke-width="5.5556"/><path d="m1109.4004-.00061465h1283.3436v666.66763465h-1283.3436z" fill="#0082dc" stroke-width="5.5556"/><g fill="#fff" transform="translate(-730.2586 1215.2977)"><path d="m1972.9-881.99c0-92.38 68.45-160.83 159.72-160.83 91.823 0 159.72 69.007 159.72 160.83 0 92.936-68.45 161.94-159.72 161.94-91.267 0-159.72-69.007-159.72-161.94m268.24 0c0-71.233-48.973-116.31-108.52-116.31-59.546 0-108.52 45.077-108.52 116.31 0 72.346 48.972 117.42 108.52 117.42 59.546 0 108.52-45.077 108.52-117.42" stroke-width="5.5651"/><path d="m591.2 87.8v-51.7c.9-.2 2.6-.4 4.2-.4 3.4 0 4.4 1.4 4.4 3.5v3.8c4-4.4 9.9-7.9 17.5-7.9 10.6 0 19.4 6.7 19.4 22.1v27.7c0 2.1-1.2 3.4-4.8 3.4-1.5 0-3.2-.2-4.1-.4v-29.6c0-10.4-5.1-15.4-12.8-15.4-6.1 0-12.5 4.1-15.2 9v32.9c0 2.1-1.1 3.4-4.7 3.4-1.3 0-3-.2-3.9-.4z" fill="#fff" transform="matrix(6.0673 0 0 6.0673 -1238.2 -1254.4)"/><path d="m696.4 65.5h-40.1c1.4 9.8 8.2 15.6 18.5 15.6 4.3 0 7.8-1.1 11.1-2.2 2.2-.8 3.4-1.1 4.2-1.1 2.3 0 3.9 2.2 3.4 6.8-4.5 2.1-11.7 4.3-19.2 4.3-16 0-27.2-11.1-27.2-27.3 0-15.4 11.1-26.6 25.8-26.6 16 0 23.9 12.6 23.9 25 0 1.7-.1 3.5-.4 5.5m-40.2-7.3h31.8c-.3-8.8-6-15.6-15.1-15.6-8.2 0-15.4 5.4-16.7 15.6" fill="#fff" transform="matrix(5.986 0 0 5.986 -1199.8 -1252.8)"/></g><path d="m506.67072 64.44338c-54.99997 0-64.44296 28.888984-64.44296 57.22297v369.9998c6.11109 1.1111 12.22099 1.666 19.44298 1.666 54.44397 0 65.55697-16.111 65.55697-43.88898v-382.779791c-6.6667-1.666699-13.88999-2.222699-20.55699-2.222699zm210.55988 108.32994c-37.77798 0-59.44396 13.888-81.66595 37.77698l-104.44994 114.44994 84.44495 132.77993c15.55599 24.44398 36.10998 36.66598 69.44296 36.66598 21.66699 0 40.00098-4.9998 48.33397-8.8887l-101.66994-153.32992 72.22096-76.11095 118.32994 185.55989-72.22296 151.10992c7.22219 3.8889 21.66798 8.334 40.55697 8.334 31.66699.5555 48.88798-11.667 61.66597-39.99998l169.99987-378.88979c-7.2222-3.889-22.77795-7.7765-34.99995-8.3321-21.66698-.5555-51.11097 3.8886-69.99996 48.88898l-54.99997 129.99992-108.32994-174.9999c-7.22229-2.2222-23.88798-5-36.66598-5zm-426.83976.01c-14.89099.047-29.73898.6937-43.71498 2.2129-67.77796 7.7777-102.21994 48.33198-102.21994 97.22095 0 39.99998 28.88798 77.77796 83.33195 88.33395l64.99997 11.66599c24.44398 5 36.66798 10.001 36.66798 23.33399 0 9.99999-8.8889 20.55499-39.99998 20.55499-28.33298 0-66.11096-3.8887-89.99995-3.8887-23.33299 0-47.77897 10.55599-47.77897 56.11097 0 5.5556 1.1116 12.77799 2.22269 18.33399 34.44399 3.8889 107.21995 10.55599 157.21992 5 69.44396-7.7778 103.32994-45.55498 103.32994-97.77695 0-44.99997-27.22398-81.66595-91.66795-93.88895l-62.77696-11.66799c-19.99999-3.3334-32.77699-8.3322-32.77699-19.44299 0-10.55599 12.778-19.44499 44.99998-19.44499 31.66698 0 58.88797 3.3339 76.66596 3.3339 23.33298 0 47.22297-9.4445 47.22297-54.99997 0-6.1112-.5549-11.66599-1.666-17.77699-23.29899-3.0556-60.25196-6.8989-97.68194-7.1973-2.1267-.017-4.2555-.022-6.3828-.016z" fill="#0082dc" stroke-width="5.5556"/><g fill="#0082dc" transform="matrix(2.666685 0 0 2.666685 2392.7467 .001117)"><path d="m47.72 66.75c4.27-1.63 9.009999-.77 13.299999.33v50.41h57.960001v-43.52c-.2-3.08 1.41-6.38 4.46-7.41 4.18-1.36 8.63975-.52 12.79975.5v111.94c.19 2.95-1.67975 5.81-4.47975 6.78-4.19 1.35-8.66.5-12.78-.69v-51.58h-57.960001v45.56c.17 2.76-1.519999 5.48-4.089999 6.53-4.28 1.62-8.940001.68-13.190001-.49v-111.08c-.16-2.92 1.160001-6.08 3.980001-7.28z" fill="#0082dc"/><path d="m163.6 67.6c1.93541-1.250479 4.18277-1.423068 6.4468-1.407001h20.66351c9.41962-.02864 18.81521.354982 27.85969 3.307001 14.45 4.25 27.14 14.48 33.54 28.21 5.52 11.92 6.78 25.54 4.66 38.43-2.52 15.09-11.04 29.21-23.67 37.96-10.48 7.39-23.33 11.21025-36.12 11.18025h-27.04c-2.47-.06-5.46.0498-7.15-2.10025-1.87-2.29-1.55-5.41-1.57-8.16v-100.06c-.01-2.57.12-5.67 2.38-7.36m14.9 14.359499v87.540751h18.52c10.64-.21 21.64-3.56025 29.54-10.93025 9.32-8.38 13.81-21.17 13.46-33.53.39-9.74-2.69-19.54-8.69-27.24-5.52-7-13.5-11.82-22.09-14.05-5.14467-1.391422-10.41037-1.790501-15.70306-1.790501z" fill="#0082dc"/></g><path d="m44.444975-.00061465h3095.907325c24.444 0 44.444 19.99998865 44.444 44.44397565v212.219889l-3120.907335 123.88993c-35.555981 1.1111-63.888965 30.55598-63.888965 66.11096v-402.219779c0-24.443987 19.999989-44.44397565 44.443975-44.44397565z" fill="#fff" opacity=".2" stroke-width="5.5556"/></svg>

<?xml version="1.0" encoding="UTF-8" standalone="no"?>
<svg
   xmlns:dc="http://purl.org/dc/elements/1.1/"
   xmlns:cc="http://creativecommons.org/ns#"
   xmlns:rdf="http://www.w3.org/1999/02/22-rdf-syntax-ns#"
   xmlns:svg="http://www.w3.org/2000/svg"
   xmlns="http://www.w3.org/2000/svg"
   xmlns:sodipodi="http://sodipodi.sourceforge.net/DTD/sodipodi-0.dtd"
   xmlns:inkscape="http://www.inkscape.org/namespaces/inkscape"
   width="3184.7456"
   height="666.66797"
   version="1.1"
   viewBox="0 0 3184.7963 666.66596"
   id="svg31"
   sodipodi:docname="Sky One HD.svg"
   inkscape:version="0.92.1 r15371">
  <metadata
     id="metadata37">
    <rdf:RDF>
      <cc:Work
         rdf:about="">
        <dc:format>image/svg+xml</dc:format>
        <dc:type
           rdf:resource="http://purl.org/dc/dcmitype/StillImage" />
        <dc:title />
      </cc:Work>
    </rdf:RDF>
  </metadata>
  <defs
     id="defs35">
    <linearGradient
       y2="-27.096001"
       x2="99.850998"
       y1="138.674"
       x1="99.850998"
       gradientUnits="userSpaceOnUse"
       id="b-2"
       gradientTransform="matrix(-5.5556049,0,0,5.5556049,3410.6342,173.19927)">
      <stop
         id="stop19-7"
         stop-color="#00043b"
         offset="0" />
      <stop
         id="stop21-3"
         stop-color="#002672"
         offset="1" />
    </linearGradient>
  </defs>
  <sodipodi:namedview
     pagecolor="#ffffff"
     bordercolor="#666666"
     borderopacity="1"
     objecttolerance="10"
     gridtolerance="10"
     guidetolerance="10"
     inkscape:pageopacity="0"
     inkscape:pageshadow="2"
     inkscape:window-width="1920"
     inkscape:window-height="1017"
     id="namedview33"
     showgrid="false"
     inkscape:zoom="0.33570432"
     inkscape:cx="1541.1359"
     inkscape:cy="238.94516"
     inkscape:window-x="-8"
     inkscape:window-y="-8"
     inkscape:window-maximized="1"
     inkscape:current-layer="svg31"
     fit-margin-top="0"
     fit-margin-left="0"
     fit-margin-right="0"
     fit-margin-bottom="0" />
  <path
     style="fill:#ffffff;fill-opacity:1;stroke-width:5.55560017"
     d="M 43.89037,-0.00240095 C 19.446383,-0.00240095 0.001,20.554935 0.001,43.888922 V 622.21843 c 0,24.44399 20.00008,44.44602 44.444066,44.44602 l 3095.861734,0.008 c 24.4442,0 44.446,-19.99941 44.446,-44.44407 V 43.888922 c 0,-23.33356 -19.447,-43.88936980052 -43.8914,-43.88936980052 z"
     id="path9"
     inkscape:connector-curvature="0"
     sodipodi:nodetypes="cssccsscc" />
  <path
     d="M 1109.4004,-6.1465474e-4 H 2392.744 V 666.66702 H 1109.4004 Z"
     id="path7"
     style="fill:#0082dc;fill-opacity:1;stroke-width:5.55560017"
     inkscape:connector-curvature="0"
     sodipodi:nodetypes="ccccc" />
  <g
     transform="translate(-730.2586,1215.2977)"
     id="g21"
     style="fill:#ffffff">
    <path
       d="m 1972.9,-881.99 c 0,-92.38 68.45,-160.83 159.72,-160.83 91.823,0 159.72,69.007 159.72,160.83 0,92.936 -68.45,161.94 -159.72,161.94 -91.267,0 -159.72,-69.007 -159.72,-161.94 m 268.24,0 c 0,-71.233 -48.973,-116.31 -108.52,-116.31 -59.546,0 -108.52,45.077 -108.52,116.31 0,72.346 48.972,117.42 108.52,117.42 59.546,0 108.52,-45.077 108.52,-117.42"
       id="path11"
       inkscape:connector-curvature="0"
       style="stroke-width:5.56510019" />
    <g
       transform="matrix(6.0673,0,0,6.0673,-1238.2,-1254.4)"
       id="g15">
      <path
         d="M 591.2,87.8 V 36.1 c 0.9,-0.2 2.6,-0.4 4.2,-0.4 3.4,0 4.4,1.4 4.4,3.5 V 43 c 4,-4.4 9.9,-7.9 17.5,-7.9 10.6,0 19.4,6.7 19.4,22.1 v 27.7 c 0,2.1 -1.2,3.4 -4.8,3.4 -1.5,0 -3.2,-0.2 -4.1,-0.4 V 58.3 c 0,-10.4 -5.1,-15.4 -12.8,-15.4 -6.1,0 -12.5,4.1 -15.2,9 v 32.9 c 0,2.1 -1.1,3.4 -4.7,3.4 -1.3,0 -3,-0.2 -3.9,-0.4 z"
         id="path13"
         inkscape:connector-curvature="0"
         style="fill:#ffffff" />
    </g>
    <g
       transform="matrix(5.986,0,0,5.986,-1199.8,-1252.8)"
       id="g19">
      <path
         d="m 696.4,65.5 h -40.1 c 1.4,9.8 8.2,15.6 18.5,15.6 4.3,0 7.8,-1.1 11.1,-2.2 2.2,-0.8 3.4,-1.1 4.2,-1.1 2.3,0 3.9,2.2 3.4,6.8 -4.5,2.1 -11.7,4.3 -19.2,4.3 -16,0 -27.2,-11.1 -27.2,-27.3 0,-15.4 11.1,-26.6 25.8,-26.6 16,0 23.9,12.6 23.9,25 0,1.7 -0.1,3.5 -0.4,5.5 M 656.2,58.2 H 688 c -0.3,-8.8 -6,-15.6 -15.1,-15.6 -8.2,0 -15.4,5.4 -16.7,15.6"
         id="path17"
         inkscape:connector-curvature="0"
         style="fill:#ffffff" />
    </g>
  </g>
  <path
     inkscape:connector-curvature="0"
     style="fill:#0082dc;fill-opacity:1;stroke-width:5.55560017"
     id="path23"
     d="m 506.67072,64.44338 c -54.99997,0 -64.44296,28.888984 -64.44296,57.22297 v 369.9998 c 6.11109,1.1111 12.22099,1.666 19.44298,1.666 54.44397,0 65.55697,-16.111 65.55697,-43.88898 V 66.663379 C 520.56101,64.99668 513.33772,64.44068 506.67072,64.44068 Z M 717.2306,172.77332 c -37.77798,0 -59.44396,13.888 -81.66595,37.77698 l -104.44994,114.44994 84.44495,132.77993 c 15.55599,24.44398 36.10998,36.66598 69.44296,36.66598 21.66699,0 40.00098,-4.9998 48.33397,-8.8887 L 631.66665,332.22753 703.88761,256.11658 822.21755,441.67647 749.99459,592.78639 c 7.22219,3.8889 21.66798,8.334 40.55697,8.334 31.66699,0.5555 48.88798,-11.667 61.66597,-39.99998 L 1022.2174,182.23062 c -7.2222,-3.889 -22.77795,-7.7765 -34.99995,-8.3321 -21.66698,-0.5555 -51.11097,3.8886 -69.99996,48.88898 L 862.21752,352.78742 753.88758,177.78752 c -7.22229,-2.2222 -23.88798,-5 -36.66598,-5 z m -426.83976,0.01 c -14.89099,0.047 -29.73898,0.6937 -43.71498,2.2129 -67.77796,7.7777 -102.21994,48.33198 -102.21994,97.22095 0,39.99998 28.88798,77.77796 83.33195,88.33395 l 64.99997,11.66599 c 24.44398,5 36.66798,10.001 36.66798,23.33399 0,9.99999 -8.8889,20.55499 -39.99998,20.55499 -28.33298,0 -66.11096,-3.8887 -89.99995,-3.8887 -23.33299,0 -47.77897,10.55599 -47.77897,56.11097 0,5.5556 1.1116,12.77799 2.22269,18.33399 34.44399,3.8889 107.21995,10.55599 157.21992,5 69.44396,-7.7778 103.32994,-45.55498 103.32994,-97.77695 0,-44.99997 -27.22398,-81.66595 -91.66795,-93.88895 l -62.77696,-11.66799 c -19.99999,-3.3334 -32.77699,-8.3322 -32.77699,-19.44299 0,-10.55599 12.778,-19.44499 44.99998,-19.44499 31.66698,0 58.88797,3.3339 76.66596,3.3339 23.33298,0 47.22297,-9.4445 47.22297,-54.99997 0,-6.1112 -0.5549,-11.66599 -1.666,-17.77699 -23.29899,-3.0556 -60.25196,-6.8989 -97.68194,-7.1973 -2.1267,-0.017 -4.2555,-0.022 -6.3828,-0.016 z" />
  <g
     id="#ffffffff"
     transform="matrix(2.666685,0,0,2.666685,2392.7467,0.00111712)"
     style="fill:#0082dc;fill-opacity:1">
    <path
       d="m 47.72,66.75 c 4.27,-1.63 9.009999,-0.77 13.299999,0.33 v 50.41 H 118.98 V 73.97 c -0.2,-3.08 1.41,-6.38 4.46,-7.41 4.18,-1.36 8.63975,-0.52 12.79975,0.5 V 179 c 0.19,2.95 -1.67975,5.81 -4.47975,6.78 -4.19,1.35 -8.66,0.5 -12.78,-0.69 V 133.51 H 61.019999 v 45.56 c 0.17,2.76 -1.519999,5.48 -4.089999,6.53 -4.28,1.62 -8.940001,0.68 -13.190001,-0.49 V 74.03 C 43.579999,71.11 44.9,67.95 47.72,66.75 Z"
       id="path7-5"
       inkscape:connector-curvature="0"
       style="opacity:1;fill:#0082dc;fill-opacity:1"
       sodipodi:nodetypes="ccccccccccccccccc" />
    <path
       d="m 163.6,67.6 c 1.93541,-1.250479 4.18277,-1.423068 6.4468,-1.407001 h 20.66351 c 9.41962,-0.02864 18.81521,0.354982 27.85969,3.307001 14.45,4.25 27.14,14.48 33.54,28.21 5.52,11.92 6.78,25.54 4.66,38.43 -2.52,15.09 -11.04,29.21 -23.67,37.96 -10.48,7.39 -23.33,11.21025 -36.12,11.18025 h -27.04 c -2.47,-0.06 -5.46,0.0498 -7.15,-2.10025 -1.87,-2.29 -1.55,-5.41 -1.57,-8.16 V 74.96 c -0.01,-2.57 0.12,-5.67 2.38,-7.36 m 14.9,14.359499 v 87.540751 h 18.52 c 10.64,-0.21 21.64,-3.56025 29.54,-10.93025 9.32,-8.38 13.81,-21.17 13.46,-33.53 0.39,-9.74 -2.69,-19.54 -8.69,-27.24 -5.52,-7 -13.5,-11.82 -22.09,-14.05 -5.14467,-1.391422 -10.41037,-1.790501 -15.70306,-1.790501 z"
       id="path9-4"
       inkscape:connector-curvature="0"
       style="opacity:1;fill:#0082dc;fill-opacity:1"
       sodipodi:nodetypes="ccccccccccccccccccccsc" />
  </g>
  <path
     style="opacity:0.2;fill:#ffffff;stroke-width:5.55560017"
     inkscape:connector-curvature="0"
     id="path25"
     d="M 44.444975,-6.1465474e-4 H 3140.3523 c 24.444,0 44.444,19.99998865474 44.444,44.44397565474 V 256.66325 L 63.888965,380.55318 C 28.332984,381.66428 0,411.10916 0,446.66414 V 44.444361 C 0,20.000374 19.999989,3.8534526e-4 44.443975,3.8534526e-4 Z"
     sodipodi:nodetypes="csscccscc" />
</svg>
